en/_assets/wiki/svg/wysiwyg/section-all-center.svg

<svg xmlns="http://www.w3.org/2000/svg" xmlns:xlink="http://www.w3.org/1999/xlink" width="24" height="24" class="yc-icon" fill="currentColor" stroke="none" aria-hidden="true"><svg viewBox="0 0 24 24" fill="none" xmlns="http://www.w3.org/2000/svg"><path fill-rule="evenodd" clip-rule="evenodd" d="M3.25 7C3.25 6.58579 3.58579 6.25 4 6.25C4.41421 6.25 4.75 6.58579 4.75 7V17C4.75 17.4142 4.41421 17.75 4 17.75C3.58579 17.75 3.25 17.4142 3.25 17V7ZM8.44713 13.4932L9.1284 12.75L7 12.75C6.58579 12.75 6.25 12.4142 6.25 12C6.25 11.5858 6.58579 11.25 7 11.25L9.46174 11.25L8.78047 10.5068C8.50057 10.2014 8.5212 9.72702 8.82654 9.44713C9.13188 9.16724 9.6063 9.18786 9.8862 9.4932L11.5529 11.3114C11.8157 11.5981 11.8157 12.0382 11.5529 12.325L9.55287 14.5068C9.27297 14.8121 8.79855 14.8328 8.49321 14.5529C8.18787 14.273 8.16724 13.7985 8.44713 13.4932ZM15.2195 10.5068L14.5383 11.25H17C17.4142 11.25 17.75 11.5858 17.75 12C17.75 12.4142 17.4142 12.75 17 12.75H14.8716L15.5529 13.4932C15.8328 13.7985 15.8121 14.273 15.5068 14.5529C15.2015 14.8328 14.727 14.8121 14.4471 14.5068L12.4471 12.325C12.1843 12.0382 12.1843 11.5981 12.4471 11.3114L14.1138 9.4932C14.3937 9.18786 14.8681 9.16724 15.1735 9.44713C15.4788 9.72702 15.4994 10.2014 15.2195 10.5068ZM19.25 7C19.25 6.58579 19.5858 6.25 20 6.25C20.4142 6.25 20.75 6.58579 20.75 7V17C20.75 17.4142 20.4142 17.75 20 17.75C19.5858 17.75 19.25 17.4142 19.25 17V7Z" fill="currentColor"></path></svg></svg>

<svg xmlns="http://www.w3.org/2000/svg" width="24" height="24" fill="currentColor" aria-hidden="true" class="yc-icon">
    <svg xmlns="http://www.w3.org/2000/svg" fill="none" viewBox="0 0 24 24">
        <path fill="currentColor" fill-rule="evenodd" d="M3.25 7a.75.75 0 0 1 1.5 0v10a.75.75 0 0 1-1.5 0V7Zm5.197 6.493.681-.743H7a.75.75 0 0 1 0-1.5h2.462l-.682-.743a.75.75 0 0 1 1.106-1.014l1.667 1.818a.75.75 0 0 1 0 1.014l-2 2.182a.75.75 0 0 1-1.106-1.014Zm6.773-2.986-.682.743H17a.75.75 0 0 1 0 1.5h-2.128l.68.743a.75.75 0 0 1-1.105 1.014l-2-2.182a.75.75 0 0 1 0-1.014l1.667-1.818a.75.75 0 0 1 1.105 1.014ZM19.25 7a.75.75 0 0 1 1.5 0v10a.75.75 0 0 1-1.5 0V7Z" clip-rule="evenodd"/>
    </svg>
</svg>
